X:7
T:Mazurka D (tinwhistle in D)
T:mz00978 (Hanny Christen)
%%MIDI program 72   % 111 /74 / 79=whistle
R:mazurka
M:3/4
L:1/8
K:D %%MIDI gchordon
"D"A>G F>EF2 | "Em"B>A G>F G2 | "A7"cB Ac ec | "D"dc def2 | A>G F>EF2 | "Em"B>A G>FG2 | "A7"cB Ac ec | 
"D"d2d2z2 :: "D"F2A2d2 | "A7"f2e>de2 | E2A2c2 | "D"e2d>cd2 | F2A2d2 | "A7"f2e>de2 | EA Ac ec | "D"d2d2"_>Teil A"z2 ::
"D"FA AFd2 | "A7"Ec cEe2 | Ec cEG2 | "D"Fd dAf2 | FA AFd2 | "A7"Ec cEe2 | EA ce gc | "D"d2d2z2 :| 
W:Parts: ABAC

